X:1
T:Knockando House
T:Knockando House
T:William Marshall
C:William Marshall
L:1/8
Q:1/8=128
M:4/4
K:D
V:1 treble 
V:1
|: F | D/D/D D>B A>F A<B | D/D/D D>B A>F E<F | D/D/D D>B A>B d>e | f>d e<f F<d EF | %5
 D/D/D D>B A>F A<B | D/D/D D>B A>F E<F | D/D/D D>B A>B d>e | f>d e<f F<d EB | A>F d>F A>F d>F | %10
 A/F/F d>F B/A/G/F/ EF | A>F d>F A>B d>e | f>d e<f F<d EB | A>F d>F A>F d>F | %14
 A/F/F d>F B/A/G/F/ EF | A>F d>F A>B d>e | f>d e<f F<d E :| %17

